!! 00000] TT[WS
!!!OTL: Wangqiufeng xiaochang
!!!ARE: Asia, China, Shanxi Daixian
!! Ethnic Group: Han
!! WI, 302 (1)
!!!SCT: J0365
!!!YEM: Copyright 1995, estate of Helmut Schaffrath.
**kern
*ICvox
*Ivox
*M2/4
*k[f#c#g#]
*A:
{8b
8b
8b
8f#
=1
2b
=2
8.ee
16cc#
8b
8a
=3
2e}
=4
{8b
8b
8f#
8e
=5
8b
8b
8f#
8e
=6
8b
8b
8b
8f#
=7
4a}
{8f#
8e
=8
8f#
16cc#
16cc#
8b
8f#
=9
2e}
==
!!!AGN: Xiaodiao. Xinminge, Xuanchuan
!! Neue Text. Politische Liede
!!!ONB: ESAC (Essen Associative Code) Database: CHINA
!!!AMT: simple duple
!!!AIN: vox
!!!EED: Helmut Schaffrath
!!!EEV: 1.0
*-
